images/default.svg

<svg height="40" viewBox="0 0 76 40" width="76" xmlns="http://www.w3.org/2000/svg"><path d="m37 38c-9.9411255 0-18-8.0588745-18-18s8.0588745-18 18-18 18 8.0588745 18 18-8.0588745 18-18 18zm-2.216-14.208h3.04v-1.312c0-3.84 5.664-4.384 5.664-9.664 0-3.552-3.072-5.856-6.688-5.856-3.488 0-5.6 2.048-5.6 2.048l1.728 2.208s1.632-1.344 3.648-1.344c2.112 0 3.648 1.376 3.648 3.168 0 3.68-5.44 4.384-5.44 9.248zm-.064 6.208h3.168v-3.104h-3.168z" fill="#fff" fill-rule="evenodd"/></svg>

<?xml version="1.0" encoding="UTF-8" standalone="no"?>
<svg width="76px" height="40px" viewBox="0 0 76 40" version="1.1" xmlns="http://www.w3.org/2000/svg" xmlns:xlink="http://www.w3.org/1999/xlink">
    <!-- Generator: Sketch 44.1 (41455) - http://www.bohemiancoding.com/sketch -->
    <title>icon-default</title>
    <desc>Created with Sketch.</desc>
    <defs></defs>
    <g id="Page-1" stroke="none" stroke-width="1" fill="none" fill-rule="evenodd">
        <g id="icon-default">
            <g id="Group"></g>
            <path d="M37,38 C27.0588745,38 19,29.9411255 19,20 C19,10.0588745 27.0588745,2 37,2 C46.9411255,2 55,10.0588745 55,20 C55,29.9411255 46.9411255,38 37,38 Z M34.784,23.792 L37.824,23.792 L37.824,22.48 C37.824,18.64 43.488,18.096 43.488,12.816 C43.488,9.264 40.416,6.96 36.8,6.96 C33.312,6.96 31.2,9.008 31.2,9.008 L32.928,11.216 C32.928,11.216 34.56,9.872 36.576,9.872 C38.688,9.872 40.224,11.248 40.224,13.04 C40.224,16.72 34.784,17.424 34.784,22.288 L34.784,23.792 Z M34.72,30 L37.888,30 L37.888,26.896 L34.72,26.896 L34.72,30 Z" id="Combined-Shape" fill="#FFFFFF"></path>
        </g>
    </g>
</svg>
